X:631
T:Galway Reel, The
R:reel
C:Larry Redican (1908-1975)
S:Kevin Finucane
Z:id:hn-reel-631
M:C|
K:G
B|:AGEG DG,B,D|BAGA BedB|AGED B,DA,D|B,A,~A,2 B,EED|
E2DE GEDB,|D2CE DG,B,D|~E3G DEGA|1 BdAB ~G3B:|2 BdAB G2Bc||
|:dG~G2 EGDC|B,G,B,D GBdf|ec~c2 AcGE|DFAd fedc|
BG~G2 EGDC|B,G,B,D GBdf|ec~c2 efge|1 dBAB G2Bc:|2 dBAB ~G3||
